static/img/in-field/dropdown-active.svg

<svg fill="none" height="59" viewBox="0 0 177 59" width="177" xmlns="http://www.w3.org/2000/svg"><path d="m1.75 1.75h173.5v55.5h-173.5z" fill="#dcedf9"/><path d="m21.1484 38.5v-15.7051h1.8262v14.0723h6.9717v1.6328zm13.2588-11.7734v11.7734h-1.7832v-11.7734zm-.8701-4.4043c.2936 0 .5443.0966.752.29.2148.1862.3222.4798.3222.8809 0 .3938-.1074.6875-.3222.8808-.2077.1934-.4584.2901-.752.2901-.3079 0-.5657-.0967-.7734-.2901-.2005-.1933-.3008-.487-.3008-.8808 0-.4011.1003-.6947.3008-.8809.2077-.1934.4655-.29.7734-.29zm12.5176 12.955c0 .752-.1898 1.3858-.5693 1.9014-.3724.5085-.9096.8916-1.6114 1.1494-.6946.2578-1.5254.3867-2.4922.3867-.8235 0-1.5361-.0644-2.1377-.1933-.6015-.1289-1.1279-.3115-1.5791-.5479v-1.6435c.4799.2363 1.0528.4511 1.7188.6445s1.3463.29 2.041.29c1.0169 0 1.7546-.1647 2.2129-.4941s.6875-.777.6875-1.3428c0-.3222-.0931-.6051-.2793-.8486-.179-.2506-.4834-.4906-.9131-.7197-.4297-.2364-1.0241-.4942-1.7832-.7735-.7519-.2864-1.4036-.5693-1.9551-.8486-.5442-.2865-.9668-.6338-1.2675-1.042-.2937-.4082-.4405-.9381-.4405-1.5898 0-.9955.4011-1.7582 1.2031-2.2881.8093-.5371 1.8692-.8057 3.1797-.8057.709 0 1.3715.0716 1.9873.2149.6231.136 1.2032.3222 1.7403.5586l-.6016 1.4287c-.487-.2077-1.0062-.3832-1.5576-.5264s-1.1136-.2148-1.6865-.2148c-.8236 0-1.4574.136-1.9014.4082-.4368.2721-.6553.6445-.6553 1.1171 0 .3653.1003.6661.3008.9024.2077.2363.5371.4583.9883.666s1.0456.4512 1.7832.7305c.7376.2721 1.375.555 1.9121.8486.5371.2865.9489.6374 1.2354 1.0527.2936.4082.4404.9346.4404 1.5791zm6.9209 1.9766c.2936 0 .5944-.0251.9023-.0752.308-.0501.5586-.111.752-.1826v1.3857c-.2077.0931-.4977.1719-.8701.2364-.3653.0644-.7233.0966-1.0743.0966-.623 0-1.1888-.1074-1.6972-.3222-.5085-.222-.9167-.5944-1.2246-1.1172-.3008-.5228-.4512-1.2461-.4512-2.1699v-6.9825h-1.6758v-.8701l1.6865-.6982.709-2.5567h1.0742v2.7286h3.4483v1.3964h-3.4483v6.9288c0 .7376.1683 1.289.5049 1.6543.3438.3652.7985.5478 1.3643.5478zm21.4902-14.459-5.6396 15.7051h-1.8369l-5.6397-15.7051h1.9121l3.6738 10.3447c.1504.4154.2829.8129.3975 1.1924.1218.3796.2292.7448.3223 1.0957s.1754.6911.247 1.0205c.0717-.3294.154-.6696.2471-1.0205.0931-.358.2005-.7269.3223-1.1064.1217-.3867.2578-.7914.4082-1.2139l3.6523-10.3125zm6.5449 3.7383c1.4037 0 2.4457.3151 3.126.9453.6804.6302 1.0205 1.6364 1.0205 3.0186v8.0029h-1.2998l-.3437-1.7402h-.086c-.3294.4297-.6731.7913-1.0312 1.0849-.3581.2865-.7735.5049-1.2461.6553-.4655.1432-1.0384.2148-1.7188.2148-.7161 0-1.3535-.1253-1.9121-.3759-.5514-.2507-.9883-.6302-1.3105-1.1387-.3151-.5085-.4727-1.153-.4727-1.9336 0-1.1745.4655-2.0768 1.3965-2.707s2.349-.974 4.2539-1.0313l2.0303-.0859v-.7197c0-1.017-.2184-1.7295-.6553-2.1377-.4368-.4082-1.0527-.6123-1.8476-.6123-.6159 0-1.2032.0895-1.7618.2685-.5585.179-1.0885.3903-1.5898.6338l-.5479-1.3535c.53-.2722 1.1387-.5049 1.8262-.6983.6875-.1933 1.4108-.29 2.1699-.29zm2.3848 6.166-1.7939.0752c-1.4681.0573-2.503.2972-3.1045.7197-.6016.4226-.9024 1.0205-.9024 1.794 0 .6732.2041 1.1709.6123 1.4931.4082.3223.9489.4834 1.6221.4834 1.0456 0 1.9014-.29 2.5674-.8701.666-.58.999-1.4502.999-2.6103zm7.4795 5.8008h-1.7939v-16.7148h1.7939zm13.742-11.7734v11.7734h-1.461l-.258-1.6543h-.096c-.244.4082-.559.752-.946 1.0313-.386.2792-.823.4869-1.31.623-.48.1432-.992.2148-1.5362.2148-.931 0-1.7116-.1503-2.3418-.4511s-1.1065-.7663-1.4287-1.3965c-.3151-.6302-.4727-1.4395-.4727-2.4277v-7.7129h1.8047v7.5839c0 .9812.222 1.7152.666 2.2022.444.4798 1.1208.7197 2.0303.7197.8734 0 1.5684-.1647 2.0844-.4941.522-.3294.898-.8128 1.127-1.4502.23-.6445.344-1.4323.344-2.3633v-6.1982zm8.554-.2149c1.003 0 1.862.222 2.578.666s1.264 1.0671 1.644 1.8692c.379.7949.569 1.7259.569 2.7929v1.1065h-8.132c.022 1.3822.365 2.4349 1.031 3.1582s1.604 1.085 2.815 1.085c.745 0 1.403-.0681 1.976-.2041.573-.1361 1.168-.3366 1.784-.6016v1.5683c-.595.265-1.186.4584-1.773.5801-.58.1218-1.267.1826-2.062.1826-1.132 0-2.12-.2291-2.965-.6875-.838-.4655-1.49-1.1458-1.955-2.041-.466-.8952-.699-1.9909-.699-3.2871 0-1.2676.212-2.3633.634-3.2871.43-.931 1.031-1.6471 1.805-2.1484.78-.5013 1.697-.752 2.75-.752zm-.022 1.461c-.952 0-1.711.3115-2.277.9345-.566.6231-.902 1.4932-1.01 2.6104h6.231c-.007-.7018-.118-1.3177-.333-1.8477-.208-.5371-.527-.9525-.956-1.2461-.43-.3008-.981-.4511-1.655-.4511z" fill="#464b52"/><path d="m1.75 1.75h173.5v55.5h-173.5z" stroke="#217cbb" stroke-width="2.5"/></svg>

<svg width="177" height="59" viewBox="0 0 177 59" fill="none" xmlns="http://www.w3.org/2000/svg"><rect x="1.75" y="1.75" width="173.5" height="55.5" fill="#DCEDF9"/><path d="M21.1484 38.5V22.7949H22.9746V36.8672H29.9463V38.5H21.1484ZM34.4072 26.7266V38.5H32.624V26.7266H34.4072ZM33.5371 22.3223C33.8307 22.3223 34.0814 22.4189 34.2891 22.6123C34.5039 22.7985 34.6113 23.0921 34.6113 23.4932C34.6113 23.887 34.5039 24.1807 34.2891 24.374C34.0814 24.5674 33.8307 24.6641 33.5371 24.6641C33.2292 24.6641 32.9714 24.5674 32.7637 24.374C32.5632 24.1807 32.4629 23.887 32.4629 23.4932C32.4629 23.0921 32.5632 22.7985 32.7637 22.6123C32.9714 22.4189 33.2292 22.3223 33.5371 22.3223ZM46.0547 35.2773C46.0547 36.0293 45.8649 36.6631 45.4854 37.1787C45.113 37.6872 44.5758 38.0703 43.874 38.3281C43.1794 38.5859 42.3486 38.7148 41.3818 38.7148C40.5583 38.7148 39.8457 38.6504 39.2441 38.5215C38.6426 38.3926 38.1162 38.21 37.665 37.9736V36.3301C38.1449 36.5664 38.7178 36.7812 39.3838 36.9746C40.0498 37.168 40.7301 37.2646 41.4248 37.2646C42.4417 37.2646 43.1794 37.0999 43.6377 36.7705C44.096 36.4411 44.3252 35.9935 44.3252 35.4277C44.3252 35.1055 44.2321 34.8226 44.0459 34.5791C43.8669 34.3285 43.5625 34.0885 43.1328 33.8594C42.7031 33.623 42.1087 33.3652 41.3496 33.0859C40.5977 32.7995 39.946 32.5166 39.3945 32.2373C38.8503 31.9508 38.4277 31.6035 38.127 31.1953C37.8333 30.7871 37.6865 30.2572 37.6865 29.6055C37.6865 28.61 38.0876 27.8473 38.8896 27.3174C39.6989 26.7803 40.7588 26.5117 42.0693 26.5117C42.7783 26.5117 43.4408 26.5833 44.0566 26.7266C44.6797 26.8626 45.2598 27.0488 45.7969 27.2852L45.1953 28.7139C44.7083 28.5062 44.1891 28.3307 43.6377 28.1875C43.0863 28.0443 42.5241 27.9727 41.9512 27.9727C41.1276 27.9727 40.4938 28.1087 40.0498 28.3809C39.613 28.653 39.3945 29.0254 39.3945 29.498C39.3945 29.8633 39.4948 30.1641 39.6953 30.4004C39.903 30.6367 40.2324 30.8587 40.6836 31.0664C41.1348 31.2741 41.7292 31.5176 42.4668 31.7969C43.2044 32.069 43.8418 32.3519 44.3789 32.6455C44.916 32.932 45.3278 33.2829 45.6143 33.6982C45.9079 34.1064 46.0547 34.6328 46.0547 35.2773ZM52.9756 37.2539C53.2692 37.2539 53.57 37.2288 53.8779 37.1787C54.1859 37.1286 54.4365 37.0677 54.6299 36.9961V38.3818C54.4222 38.4749 54.1322 38.5537 53.7598 38.6182C53.3945 38.6826 53.0365 38.7148 52.6855 38.7148C52.0625 38.7148 51.4967 38.6074 50.9883 38.3926C50.4798 38.1706 50.0716 37.7982 49.7637 37.2754C49.4629 36.7526 49.3125 36.0293 49.3125 35.1055V28.123H47.6367V27.2529L49.3232 26.5547L50.0322 23.998H51.1064V26.7266H54.5547V28.123H51.1064V35.0518C51.1064 35.7894 51.2747 36.3408 51.6113 36.7061C51.9551 37.0713 52.4098 37.2539 52.9756 37.2539ZM74.4658 22.7949L68.8262 38.5H66.9893L61.3496 22.7949H63.2617L66.9355 33.1396C67.0859 33.555 67.2184 33.9525 67.333 34.332C67.4548 34.7116 67.5622 35.0768 67.6553 35.4277C67.7484 35.7786 67.8307 36.1188 67.9023 36.4482C67.974 36.1188 68.0563 35.7786 68.1494 35.4277C68.2425 35.0697 68.3499 34.7008 68.4717 34.3213C68.5934 33.9346 68.7295 33.5299 68.8799 33.1074L72.5322 22.7949H74.4658ZM81.0107 26.5332C82.4144 26.5332 83.4564 26.8483 84.1367 27.4785C84.8171 28.1087 85.1572 29.1149 85.1572 30.4971V38.5H83.8574L83.5137 36.7598H83.4277C83.0983 37.1895 82.7546 37.5511 82.3965 37.8447C82.0384 38.1312 81.623 38.3496 81.1504 38.5C80.6849 38.6432 80.112 38.7148 79.4316 38.7148C78.7155 38.7148 78.0781 38.5895 77.5195 38.3389C76.9681 38.0882 76.5312 37.7087 76.209 37.2002C75.8939 36.6917 75.7363 36.0472 75.7363 35.2666C75.7363 34.0921 76.2018 33.1898 77.1328 32.5596C78.0638 31.9294 79.4818 31.5856 81.3867 31.5283L83.417 31.4424V30.7227C83.417 29.7057 83.1986 28.9932 82.7617 28.585C82.3249 28.1768 81.709 27.9727 80.9141 27.9727C80.2982 27.9727 79.7109 28.0622 79.1523 28.2412C78.5938 28.4202 78.0638 28.6315 77.5625 28.875L77.0146 27.5215C77.5446 27.2493 78.1533 27.0166 78.8408 26.8232C79.5283 26.6299 80.2516 26.5332 81.0107 26.5332ZM83.3955 32.6992L81.6016 32.7744C80.1335 32.8317 79.0986 33.0716 78.4971 33.4941C77.8955 33.9167 77.5947 34.5146 77.5947 35.2881C77.5947 35.9613 77.7988 36.459 78.207 36.7812C78.6152 37.1035 79.1559 37.2646 79.8291 37.2646C80.8747 37.2646 81.7305 36.9746 82.3965 36.3945C83.0625 35.8145 83.3955 34.9443 83.3955 33.7842V32.6992ZM90.875 38.5H89.0811V21.7852H90.875V38.5ZM104.617 26.7266V38.5H103.156L102.898 36.8457H102.802C102.558 37.2539 102.243 37.5977 101.856 37.877C101.47 38.1562 101.033 38.3639 100.546 38.5C100.066 38.6432 99.554 38.7148 99.0098 38.7148C98.0788 38.7148 97.2982 38.5645 96.668 38.2637C96.0378 37.9629 95.5615 37.4974 95.2393 36.8672C94.9242 36.237 94.7666 35.4277 94.7666 34.4395V26.7266H96.5713V34.3105C96.5713 35.2917 96.7933 36.0257 97.2373 36.5127C97.6813 36.9925 98.3581 37.2324 99.2676 37.2324C100.141 37.2324 100.836 37.0677 101.352 36.7383C101.874 36.4089 102.25 35.9255 102.479 35.2881C102.709 34.6436 102.823 33.8558 102.823 32.9248V26.7266H104.617ZM113.171 26.5117C114.174 26.5117 115.033 26.7337 115.749 27.1777C116.465 27.6217 117.013 28.2448 117.393 29.0469C117.772 29.8418 117.962 30.7728 117.962 31.8398V32.9463H109.83C109.852 34.3285 110.195 35.3812 110.861 36.1045C111.527 36.8278 112.465 37.1895 113.676 37.1895C114.421 37.1895 115.079 37.1214 115.652 36.9854C116.225 36.8493 116.82 36.6488 117.436 36.3838V37.9521C116.841 38.2171 116.25 38.4105 115.663 38.5322C115.083 38.654 114.396 38.7148 113.601 38.7148C112.469 38.7148 111.481 38.4857 110.636 38.0273C109.798 37.5618 109.146 36.8815 108.681 35.9863C108.215 35.0911 107.982 33.9954 107.982 32.6992C107.982 31.4316 108.194 30.3359 108.616 29.4121C109.046 28.4811 109.647 27.765 110.421 27.2637C111.201 26.7624 112.118 26.5117 113.171 26.5117ZM113.149 27.9727C112.197 27.9727 111.438 28.2842 110.872 28.9072C110.306 29.5303 109.97 30.4004 109.862 31.5176H116.093C116.086 30.8158 115.975 30.1999 115.76 29.6699C115.552 29.1328 115.233 28.7174 114.804 28.4238C114.374 28.123 113.823 27.9727 113.149 27.9727Z" fill="#464B52"/><rect x="1.75" y="1.75" width="173.5" height="55.5" stroke="#217CBB" stroke-width="2.5"/></svg>
